X: 1
T: reel de Vaudreuil
O: Trad Qu\'ebec
R: reel
F: http://mustrad.udenap.org/partitions/TQ369.jpg
Z: 2010 John Chambers <jc:trillian.mit.edu>
M: 2/4
L: 1/16
K: A
   B | c2c2 B{c}BAB | cAFA EAAB | c2c2 B{c}BAB | cAEC A,3 :|
|: B | c2c2 ecAc    | BAAc BAAB | c2c2 ecAc   |1 Beec A3  :|2 Bfec A3 :|
